src/assets/svg/koinwa.svg

<svg width="169" height="47" viewBox="0 0 169 47" fill="none" xmlns="http://www.w3.org/2000/svg">
<path fill-rule="evenodd" clip-rule="evenodd" d="M98.754 46.2412L109.77 46.2542C110.256 44.0479 110.94 42.111 111.494 39.9208L116.711 21.1832L123.156 45.0128C123.303 45.6526 123.275 46.2908 123.917 46.2908L134.087 46.2748C134.363 45.6969 134.494 44.6685 134.713 43.9563C134.974 43.1073 135.116 42.3607 135.374 41.424L144.049 9.93331C144.368 8.82328 144.749 8.29881 143.972 7.69493C143.333 7.30788 136.217 7.55217 134.613 7.61859C134.116 11.3456 131.471 22.2466 130.535 27.012L128.94 33.3148L124.491 15.7949C123.971 15.8774 123.535 16.3598 123.051 16.6729C119.614 18.8967 114.949 18.7013 111.475 16.6263C110.946 16.311 110.342 15.7705 109.932 15.6247L104.835 33.5782C104.724 33.4416 104.756 33.5087 104.648 33.2797C104.504 32.9728 104.635 33.3064 104.518 32.9423L103.268 27.3379C102.85 25.0652 102.348 22.9673 101.832 20.7083L98.925 7.61172L88.875 7.57431C88.1087 8.79198 88.6204 9.07292 89.427 12.0625L97.4227 41.3667C97.853 42.8607 98.4407 44.7517 98.7555 46.2412H98.754ZM147.508 33.4179C149.16 41.2423 161.69 39.5986 160.321 30.9612C159.826 27.8365 156.483 25.2171 152.68 25.9416C149.656 26.518 146.688 29.532 147.508 33.4179ZM56.4269 19.4067C55.7259 20.2831 55.9509 21.0992 55.9509 22.4505L55.954 45.0518C55.9965 45.8992 56.0802 45.6564 56.325 46.2893C62.2376 46.3572 61.3884 46.9901 61.3891 42.2584V23.5971C61.3891 22.4344 61.77 19.864 60.8752 19.4937C60.3095 19.2601 57.2715 19.3983 56.4276 19.4075L56.4269 19.4067ZM115.709 0.23624C113.381 0.932487 112.048 1.57377 110.86 3.28232C109.738 4.89468 109.046 6.87349 109.559 9.49357C110.261 13.0779 114.209 16.6186 119.123 15.4705C125.717 13.9299 127.773 5.51 121.881 1.41803C120.495 0.455344 117.964 -0.439394 115.709 0.235477V0.23624ZM76.3002 19.2456L73.9753 20.4488C73.2926 20.8503 72.6464 21.6901 71.9583 21.8749C71.8603 22.4909 72.0116 22.3153 71.3935 22.4726C71.0582 21.6084 71.3958 20.6931 71.1038 19.8182C70.1846 19.2731 67.5055 19.3464 66.3537 19.6624C65.7021 20.9038 66.0404 30.2619 66.0404 32.5995C66.0404 34.463 65.7424 45.048 66.2275 45.8251C66.4152 46.0198 66.0929 45.8999 66.616 46.1206C67.1048 46.3267 70.4401 46.3473 70.8924 45.9877C71.601 45.4098 71.2467 42.8913 71.2467 41.7667C71.2467 40.0742 71.0111 29.7962 71.5432 28.6388C71.7037 28.2892 71.528 28.4686 71.8496 28.2342C71.9538 27.2517 72.4913 26.289 73.1497 25.6523C73.174 25.6286 73.2113 25.5966 73.2356 25.5721L73.6431 25.1637C74.3897 24.4262 75.5126 23.7002 76.8514 23.5086C78.9117 23.2131 81.2876 23.5849 82.3383 25.2484L82.5914 25.6531C82.6112 25.6813 82.6424 25.7172 82.6614 25.7454L83.1837 26.8555C84.7012 30.9993 83.0643 44.3876 83.9888 45.8358C84.4457 46.5343 85.1437 46.3244 86.2597 46.3214C89.887 46.3114 89.1647 46.7619 89.1647 40.6216C89.1647 36.8327 89.3092 32.7514 89.1586 28.9992C89.0788 27.0188 88.6918 25.8981 88.1323 24.3774C87.5476 22.7887 86.8208 21.7764 85.7526 20.8358L84.5278 20.0587C84.3765 19.9838 84.2047 19.9052 83.9812 19.8014C83.2415 19.4578 82.5937 19.1807 81.6981 19.0975C79.3595 18.8807 78.3644 19.0196 76.3002 19.2456ZM32.5894 38.7756C32.1804 38.6871 32.2412 38.9734 32.3538 38.4222C31.9189 38.1351 31.9105 37.9328 31.7258 37.4557C31.5258 36.9388 31.4042 36.7709 31.4323 36.0861C30.999 35.7448 31.5243 36.4151 31.2362 35.8288C30.8469 35.0356 31.021 31.4467 31.0803 30.6321C31.1601 29.5427 32.0823 26.9509 32.8099 26.5913C32.9247 26.0752 32.664 26.4508 33.0737 26.0096C33.3809 25.679 33.019 25.9287 33.5025 25.7706C33.6584 25.1469 34.6619 24.3484 35.4199 24.2858C35.9833 23.204 40.0393 23.1177 41.6176 23.4322C42.7633 23.6605 43.3807 23.9392 44.1599 24.4453C44.7127 24.8041 45.7504 25.5126 45.8926 26.3111C46.2089 26.2821 46.142 26.2302 46.0059 26.5264C46.3982 26.347 46.332 26.3012 46.1701 26.699C46.3883 26.7608 46.4818 26.2653 46.3389 27.0234C46.5464 27.0898 46.6346 26.6089 46.4978 27.3555C46.7144 27.4212 46.7935 26.9517 46.6703 27.6731C46.9098 27.7555 46.9083 27.2051 46.8566 28.1144C46.9288 29.0282 48.035 30.3413 47.4131 35.3875C46.7722 40.5857 42.371 43.0936 37.6536 42.1278L35.6799 41.4942C34.8231 41.0842 34.1754 40.5804 33.5078 39.8994L32.5894 38.7764V38.7756ZM51.1225 24.411C50.3546 24.117 50.5774 23.8598 49.567 22.7803L48.0388 21.374C47.4656 20.9809 47.2801 20.9984 46.9805 20.4167C46.3822 20.4213 45.5824 19.8861 44.6077 19.5708C40.4582 18.231 34.7889 18.9479 31.3913 21.1969C29.2618 22.6062 29.7643 22.4986 28.8581 23.5949L27.688 25.1706C27.6682 25.1996 27.6416 25.2393 27.6219 25.2691L27.3649 25.6958C27.3459 25.7309 27.3246 25.7729 27.3064 25.808C25.0674 30.142 25.1039 36.6014 27.6819 40.8247L30.4919 44.0837C32.9992 45.9274 35.8206 46.8031 39.1452 46.8153C42.964 46.829 45.238 46.171 48.3064 43.9097C48.3262 43.8952 48.6448 43.6135 48.6562 43.6028C50.6914 41.6431 50.3911 41.895 51.4463 40.0597C53.5051 36.4777 53.4793 29.2099 51.5338 25.3568C51.1939 24.6835 51.1483 25.0362 51.1232 24.4117L51.1225 24.411ZM148.282 18.8028C148.101 18.9647 148.548 19.0578 147.627 19.0929C147.593 19.1189 147.546 19.1532 147.523 19.1685C147.5 19.1822 147.45 19.2227 147.422 19.2395C147.394 19.2555 147.349 19.2853 147.318 19.3021C147.276 19.3242 147.146 19.38 147.101 19.3991L145.399 20.1037C145.324 21.3443 145.412 22.3833 145.443 23.5971C145.468 24.5995 145.05 26.1394 145.599 26.8929C146.609 26.7341 145.898 26.5799 147.027 25.6866C147.527 25.2912 146.97 25.5584 147.604 25.4141C147.728 24.8965 147.382 25.3278 148.013 24.8774L149.79 23.8834C150.708 23.4154 151.648 23.1673 152.877 23.0841C159.479 22.8612 163.928 27.5929 163.158 33.6843C162.896 35.7509 162.036 37.1533 161.041 38.4489C159.273 40.7499 154.624 42.6928 150.67 41.2423C149.093 40.6643 147.365 39.4841 146.48 38.4283C145.71 37.5106 144.492 35.3746 144.516 33.6355L144.124 33.0721C143.858 33.8775 144.064 33.4515 143.653 33.7065C141.122 38.6252 143.138 43.9303 146.895 45.8893C150.208 47.6169 155.464 47.4237 158.566 44.6403C158.969 44.2792 159.219 43.8868 159.739 43.7402C159.762 44.7914 159.611 45.3999 160.012 46.119C160.982 46.4404 167.843 46.4626 168.673 46.1061C169.203 45.6282 168.93 35.0707 168.93 33.582C168.93 26.4982 169.046 19.2357 159.495 17.8287C157.548 17.5416 155.386 17.6149 153.425 17.8363C152.211 17.973 148.785 18.8685 148.281 18.8028H148.282ZM9.6674 20.4282C9.53435 20.9893 9.82173 20.6992 9.2827 20.8427C9.25533 21.4489 8.83871 21.6145 8.44261 22.0657C8.11417 22.4398 7.85796 22.9811 7.29004 23.1689C7.14939 23.5582 6.87494 23.8361 6.5427 24.2491C6.24467 24.6194 6.04548 25.0011 5.45628 25.0324C5.06094 22.2642 5.82425 10.8884 5.22059 9.54472C4.48238 9.20041 1.42002 9.21492 0.423311 9.44777C-0.181862 9.85849 0.0834716 17.2271 0.0834716 18.3577V41.7667C0.0834716 43.0111 -0.280696 45.4434 0.512262 46.032C1.26949 46.442 4.4398 46.3275 5.232 46.019C5.80524 44.3151 4.99632 31.4673 5.52622 29.7771C6.17321 29.9382 6.5579 30.2924 6.69095 30.9841C7.3501 31.252 8.15142 32.3338 8.71402 33.0362C8.8159 33.1637 8.94514 33.3255 9.0014 33.3912C9.02345 33.4171 9.0569 33.4522 9.07971 33.4774L11.4 36.0784C11.8995 36.5281 11.8585 36.1105 11.9117 36.9793C12.5062 37.1892 13.4117 38.1572 13.5805 38.8314C13.8496 38.8764 14.0085 38.4741 13.7842 39.0566C14.0747 39.1718 13.8618 38.8642 14.2845 39.3749C14.5939 39.749 14.4381 39.3734 14.5012 39.9299C15.1025 40.1765 15.675 40.775 15.8461 41.4759C16.3053 41.5599 16.2255 41.5919 16.5881 41.9836C17.0389 42.4699 16.9553 42.2637 17.153 42.8623L17.08 42.8981C17.7741 43.1401 18.9875 44.7113 19.4802 45.3045C19.6208 45.4739 19.7653 45.6969 19.8291 45.7694C19.934 45.8885 20.172 46.0755 20.3005 46.1229C21.1261 46.4259 25.9561 46.3168 26.616 46.0549C27.0015 44.9182 25.3084 43.8425 24.0471 42.3698L22.4201 40.5582C22.3988 40.5315 22.3707 40.4918 22.3502 40.4659L17.0549 34.6661C17.023 34.6302 16.9287 34.5264 16.896 34.4913L16.116 33.6103C15.5367 33.0156 14.7445 32.4453 14.4936 31.6918C13.7804 31.0703 12.989 30.1031 12.3314 29.4091C11.9877 29.0473 10.3129 27.3837 10.3129 27.0356C10.3129 26.4081 13.991 23.3513 14.4495 22.265C14.676 21.7527 14.9513 21.6054 15.2804 21.2397C15.5785 20.9076 15.7184 20.5969 16.2817 20.3846L25.1183 10.9723C27.4576 8.65838 22.9112 9.23935 22.1936 9.23935C18.5899 9.23859 20.0283 9.11186 16.8907 12.548C16.8588 12.5832 16.7607 12.6771 16.7272 12.7107L10.4748 19.6907C10.1745 20.0411 10.0696 20.3335 9.66816 20.4304L9.6674 20.4282Z" fill="#141416" fill-opacity="0.7"/>
</svg>

<svg xmlns="http://www.w3.org/2000/svg" width="169" height="47" fill="none"><path fill="#141416" fill-opacity=".7" fill-rule="evenodd" d="m98.754 46.241 11.016.013c.486-2.206 1.17-4.143 1.724-6.333l5.217-18.738 6.445 23.83c.147.64.119 1.278.761 1.278l10.17-.016c.276-.578.407-1.606.626-2.319.261-.849.403-1.595.661-2.532l8.675-31.49c.319-1.11.7-1.635-.077-2.24-.639-.386-7.755-.142-9.359-.075-.497 3.727-3.142 14.628-4.078 19.393l-1.595 6.303-4.449-17.52c-.52.082-.956.565-1.44.878-3.437 2.224-8.102 2.028-11.576-.047-.529-.315-1.133-.856-1.543-1.001l-5.097 17.953c-.111-.136-.079-.07-.187-.298-.144-.307-.013.026-.13-.338l-1.25-5.604c-.418-2.273-.92-4.37-1.436-6.63L98.925 7.612l-10.05-.038c-.766 1.218-.255 1.499.552 4.489l7.996 29.304c.43 1.494 1.018 3.385 1.332 4.874zm48.754-12.823c1.652 7.824 14.182 6.18 12.813-2.457-.495-3.124-3.838-5.744-7.641-5.02-3.024.577-5.992 3.591-5.172 7.477M56.427 19.407c-.701.876-.476 1.692-.476 3.044l.003 22.6c.042.848.126.605.371 1.238 5.913.068 5.063.701 5.064-4.03V23.596c0-1.163.381-3.733-.514-4.103-.566-.234-3.603-.096-4.447-.087zM115.709.237c-2.328.695-3.661 1.337-4.849 3.045-1.122 1.613-1.814 3.591-1.301 6.212.702 3.584 4.65 7.125 9.564 5.977 6.594-1.541 8.65-9.961 2.758-14.053-1.386-.963-3.917-1.857-6.172-1.183zM76.3 19.245l-2.325 1.203c-.682.401-1.329 1.241-2.017 1.426-.098.616.054.44-.564.598-.336-.865.002-1.78-.29-2.655-.92-.545-3.599-.472-4.75-.156-.652 1.242-.314 10.6-.314 12.938 0 1.863-.298 12.448.188 13.225.187.195-.135.075.388.296.489.206 3.824.226 4.276-.133.709-.578.355-3.097.355-4.221 0-1.693-.236-11.97.296-13.128.16-.35-.015-.17.307-.405.104-.982.641-1.945 1.3-2.582.024-.023.061-.055.086-.08l.407-.408c.747-.738 1.87-1.464 3.208-1.655 2.06-.296 4.437.076 5.487 1.74l.253.404c.02.028.051.064.07.092l.523 1.11c1.517 4.144-.12 17.533.805 18.98.457.7 1.155.49 2.27.486 3.628-.01 2.906.44 2.906-5.7 0-3.788.144-7.87-.006-11.622-.08-1.98-.467-3.1-1.027-4.622-.584-1.588-1.311-2.6-2.38-3.541l-1.224-.777c-.152-.075-.323-.154-.547-.258-.74-.343-1.387-.62-2.283-.703-2.338-.217-3.334-.078-5.398.148m-43.71 19.53c-.41-.089-.349.197-.236-.354-.435-.287-.444-.49-.628-.966-.2-.517-.322-.685-.294-1.37-.433-.341.092.33-.196-.257-.39-.793-.215-4.382-.156-5.197.08-1.09 1.002-3.681 1.73-4.04.115-.517-.146-.141.264-.582.307-.331-.055-.081.428-.24.156-.623 1.16-1.422 1.918-1.484.563-1.082 4.62-1.168 6.198-.854 1.145.229 1.763.507 2.542 1.013.553.36 1.59 1.068 1.733 1.866.316-.029.249-.08.113.215.392-.179.326-.225.164.173.218.062.312-.434.169.324.207.067.296-.414.159.332.216.066.296-.403.172.318.24.083.238-.468.187.441.072.914 1.178 2.227.556 7.274-.64 5.198-5.042 7.706-9.76 6.74l-1.973-.634c-.857-.41-1.505-.914-2.172-1.595zM51.122 24.41c-.768-.294-.546-.551-1.556-1.63l-1.528-1.407c-.573-.393-.759-.376-1.059-.957-.598.004-1.398-.53-2.372-.846-4.15-1.34-9.82-.623-13.217 1.626-2.13 1.41-1.627 1.302-2.533 2.398l-1.17 1.576-.066.098-.257.427c-.02.035-.04.077-.059.112-2.239 4.334-2.202 10.793.376 15.017l2.81 3.259c2.507 1.843 5.329 2.72 8.653 2.731 3.819.014 6.093-.644 9.161-2.905.02-.015.339-.296.35-.307 2.035-1.96 1.735-1.708 2.79-3.543 2.06-3.582 2.033-10.85.088-14.703-.34-.674-.386-.32-.41-.945zm97.159-5.608c-.181.162.266.255-.655.29l-.104.076c-.023.013-.073.054-.101.07s-.073.046-.104.063a5 5 0 0 1-.217.097l-1.702.705c-.075 1.24.013 2.28.044 3.493.025 1.002-.393 2.542.156 3.296 1.01-.159.299-.313 1.428-1.206.5-.396-.057-.129.577-.273.124-.518-.222-.086.409-.537l1.777-.994c.918-.468 1.858-.716 3.087-.799 6.602-.223 11.051 4.509 10.281 10.6-.262 2.067-1.122 3.47-2.117 4.765-1.768 2.3-6.417 4.244-10.371 2.793-1.577-.578-3.305-1.758-4.19-2.814-.77-.917-1.988-3.053-1.964-4.792l-.392-.564c-.266.805-.06.38-.471.634-2.531 4.92-.515 10.224 3.242 12.183 3.313 1.728 8.569 1.535 11.671-1.249.403-.36.653-.753 1.173-.9.023 1.051-.128 1.66.273 2.379.97.321 7.831.344 8.661-.013.53-.478.257-11.035.257-12.524 0-7.084.116-14.346-9.435-15.753-1.947-.287-4.109-.214-6.07.007-1.214.137-4.64 1.033-5.144.967zM9.667 20.428c-.133.561.155.271-.384.415-.028.606-.444.771-.84 1.223-.329.374-.585.915-1.153 1.103-.14.39-.415.667-.747 1.08-.298.37-.498.752-1.087.783-.395-2.768.368-14.144-.235-15.487-.739-.345-3.801-.33-4.798-.097-.605.41-.34 7.78-.34 8.91v23.409c0 1.244-.364 3.676.43 4.265.756.41 3.927.296 4.719-.013.573-1.704-.236-14.552.294-16.242.647.161 1.032.515 1.165 1.207.66.268 1.46 1.35 2.023 2.052.102.128.231.29.287.355.022.026.056.061.079.086l2.32 2.601c.5.45.458.032.512.901.594.21 1.5 1.178 1.668 1.852.27.045.428-.357.204.226.29.115.078-.193.5.318.31.374.154-.002.217.555.601.246 1.174.845 1.345 1.546.46.084.38.116.742.508.45.486.367.28.565.878l-.073.036c.694.242 1.908 1.813 2.4 2.406.14.17.285.393.35.465.104.12.342.306.47.354.826.303 5.656.194 6.316-.068.386-1.137-1.308-2.212-2.569-3.685l-1.627-1.812-.07-.092-5.295-5.8-.159-.175-.78-.88c-.58-.595-1.371-1.166-1.622-1.92-.714-.62-1.505-1.588-2.163-2.282-.343-.362-2.018-2.025-2.018-2.373 0-.628 3.678-3.685 4.137-4.771.226-.512.501-.66.83-1.025.299-.332.438-.643 1.002-.855l8.836-9.413c2.34-2.314-2.207-1.733-2.924-1.733-3.604 0-2.166-.127-5.303 3.309-.032.035-.13.13-.164.163l-6.252 6.98c-.3.35-.405.643-.807.74z" clip-rule="evenodd"/></svg>
